X: 31352
T: Paddy O'Brien's
R: hornpipe
M: 4/4
K: Dmajor
|:(3GFE|DFAF GE=CE|DFAd fdef|(3gfg eg fAdf|(3efe (3dcB (3ABA (3GFE|
DFAF GE=CE|DFAd fdef|gbaf (3gfe cA|dgfe d2:|
|:fg|afdA FAdf|gecA EAce|fdfa bagf|(3efe (3dcB (3ABA (3GFE|
DFAF GE=CE|DFAd fdef|gbaf (3gfe cA|dgfe d2:|

